X:538
T:Edi beo thu, hevene quene
Z:Jack Campin, http://www.campin.me.uk/
F:Jack Campin's Nine-Note Tunebook
% last edit 03-02-2013
G:early English hymn
M:6/8
L:1/8
Q:3/8=60
K:F
[V:1] F2c (cB)A   | G2d c2F |(GA)B (AG)F|(ED)E    F3 |
[V:2] A2A (AG)F   | GGG A2A | G2G   F2 F|(GA)G    F3 |
%
[V:1] FFc (c/B/)BA| G2d c2F |(GA)B (AG)F|(ED)E    F3 |
[V:2] AAA  AGF    | G2G A2A | G2G   F2 F|(GA)G    F3 |
%
[V:1] B2B (AG)F   |(ED)E F2G| B2B (AG)F |(ED)E    F2A|
[V:2] G2G  F2F    |(GA)G F2F| G2G  FFF  |(G/A/)AG F2A|
%
[V:1] c2d  cBA    | G2d c2F |(GA)B (AG)F|(ED)E    F3|]
[V:2] A2A  AGF    | G2G A2A | G2G   F2 F|(GA)G    F3|]

